SDGP6/SDGP6/Assets.xcassets/ic_setting_gr.imageset/ic_setting_gr.svg

<?xml version="1.0" encoding="UTF-8"?>
<svg xmlns="http://www.w3.org/2000/svg" xmlns:xlink="http://www.w3.org/1999/xlink" width="24px" height="24px" viewBox="0 0 24 24" version="1.1">
<g id="surface1">
<path style="fill:none;stroke-width:1;stroke-linecap:butt;stroke-linejoin:miter;stroke:rgb(63.137257%,63.137257%,63.137257%);stroke-opacity:1;stroke-miterlimit:4;" d="M 0 0 L 48 0 L 48 48 L 0 48 Z M 0 0 " transform="matrix(0.5,0,0,0.5,0,0)"/>
<path style="fill:none;stroke-width:1;stroke-linecap:butt;stroke-linejoin:miter;stroke:rgb(63.137257%,63.137257%,63.137257%);stroke-opacity:1;stroke-miterlimit:4;" d="M 0 0 L 48 0 L 48 48 L 0 48 Z M 0 0 " transform="matrix(0.5,0,0,0.5,0,0)"/>
<path style="fill:none;stroke-width:1;stroke-linecap:butt;stroke-linejoin:miter;stroke:rgb(63.137257%,63.137257%,63.137257%);stroke-opacity:1;stroke-miterlimit:4;" d="M 0 0 L 48 0 L 48 48 L 0 48 Z M 0 0 " transform="matrix(0.5,0,0,0.5,0,0)"/>
<path style="fill-rule:nonzero;fill:rgb(63.137257%,63.137257%,63.137257%);fill-opacity:1;stroke-width:1;stroke-linecap:butt;stroke-linejoin:miter;stroke:rgb(63.137257%,63.137257%,63.137257%);stroke-opacity:1;stroke-miterlimit:4;" d="M 40.203125 29.203125 L 45.703125 27.703125 C 46.101562 25.25 46.101562 22.75 45.703125 20.296875 L 40.203125 18.796875 C 39.671875 18.65625 39.234375 18.273438 39.023438 17.765625 C 38.804688 17.257812 38.835938 16.679688 39.101562 16.203125 L 41.898438 11.203125 C 40.515625 9.210938 38.789062 7.484375 36.796875 6.101562 L 31.796875 8.898438 L 31 9.101562 C 30.171875 9.132812 29.429688 8.59375 29.203125 7.796875 L 27.703125 2.296875 C 25.25 1.898438 22.75 1.898438 20.296875 2.296875 L 18.796875 7.796875 C 18.570312 8.59375 17.828125 9.132812 17 9.101562 L 16.203125 8.898438 L 11.203125 6.101562 C 9.210938 7.484375 7.484375 9.210938 6.101562 11.203125 L 8.898438 16.203125 C 9.164062 16.679688 9.195312 17.257812 8.976562 17.765625 C 8.765625 18.273438 8.328125 18.65625 7.796875 18.796875 L 2.296875 20.296875 C 1.898438 22.75 1.898438 25.25 2.296875 27.703125 L 7.796875 29.203125 C 8.328125 29.34375 8.765625 29.726562 8.976562 30.234375 C 9.195312 30.742188 9.164062 31.320312 8.898438 31.796875 L 6.101562 36.796875 C 7.484375 38.789062 9.210938 40.515625 11.203125 41.898438 L 16.203125 39.101562 L 17 38.898438 C 17.828125 38.867188 18.570312 39.40625 18.796875 40.203125 L 20.296875 45.703125 C 22.75 46.101562 25.25 46.101562 27.703125 45.703125 L 29.203125 40.203125 C 29.429688 39.40625 30.171875 38.867188 31 38.898438 L 31.796875 39.101562 L 36.796875 41.898438 C 38.789062 40.515625 40.515625 38.789062 41.898438 36.796875 L 39.101562 31.796875 C 38.835938 31.320312 38.804688 30.742188 39.023438 30.234375 C 39.234375 29.726562 39.671875 29.34375 40.203125 29.203125 Z M 24 33 C 19.03125 33 15 28.96875 15 24 C 15 19.03125 19.03125 15 24 15 C 28.96875 15 33 19.03125 33 24 C 33 28.96875 28.96875 33 24 33 Z M 24 33 " transform="matrix(0.5,0,0,0.5,0,0)"/>
</g>
</svg>

<!DOCTYPE svg PUBLIC "-//W3C//DTD SVG 1.1//EN" "http://www.w3.org/Graphics/SVG/1.1/DTD/svg11.dtd">
<!-- Uploaded to: SVG Repo, www.svgrepo.com, Transformed by: SVG Repo Mixer Tools -->
<svg width="64px" height="64px" viewBox="0 0 48 48" xmlns="http://www.w3.org/2000/svg" fill="#a1a1a1" stroke="#a1a1a1">
<g id="SVGRepo_bgCarrier" stroke-width="0"/>
<g id="SVGRepo_tracerCarrier" stroke-linecap="round" stroke-linejoin="round"/>
<g id="SVGRepo_iconCarrier"> <title>setting-solid</title> <g id="Layer_2" data-name="Layer 2"> <g id="invisible_box" data-name="invisible box"> <rect width="48" height="48" fill="none"/> <rect width="48" height="48" fill="none"/> <rect width="48" height="48" fill="none"/> </g> <g id="icons_Q2" data-name="icons Q2"> <path d="M40.2,29.2l5.5-1.5a23,23,0,0,0,0-7.4l-5.5-1.5a1.8,1.8,0,0,1-1.1-2.6l2.8-5a20.6,20.6,0,0,0-5.1-5.1l-5,2.8-.8.2a1.8,1.8,0,0,1-1.8-1.3L27.7,2.3a23,23,0,0,0-7.4,0L18.8,7.8A1.8,1.8,0,0,1,17,9.1l-.8-.2-5-2.8a20.6,20.6,0,0,0-5.1,5.1l2.8,5a1.8,1.8,0,0,1-1.1,2.6L2.3,20.3a23,23,0,0,0,0,7.4l5.5,1.5a1.8,1.8,0,0,1,1.1,2.6l-2.8,5a20.6,20.6,0,0,0,5.1,5.1l5-2.8.8-.2a1.8,1.8,0,0,1,1.8,1.3l1.5,5.5a23,23,0,0,0,7.4,0l1.5-5.5A1.8,1.8,0,0,1,31,38.9l.8.2,5,2.8a20.6,20.6,0,0,0,5.1-5.1l-2.8-5A1.8,1.8,0,0,1,40.2,29.2ZM24,33a9,9,0,1,1,9-9A9,9,0,0,1,24,33Z"/> </g> </g> </g>
</svg>
